dist/assets/img/catalog-icon-04.svg

<svg width="42" height="26" fill="none" xmlns="http://www.w3.org/2000/svg"><path fill-rule="evenodd" clip-rule="evenodd" d="M11 17h-1v3h1v-3Zm-6 0H4v3h1v-3Zm14.8-9.6L17 3.7V0h-4v3.7l-2.8 3.7L9 9h12l-1.2-1.6ZM11 8l3-4V1h2v3l3 4h-8Zm19 7h1v-3h-1v3Zm-8 0h-2v2h2v-2Zm9-11h-1v2h1V4Zm-4-4v13H0v13h42V0H27ZM7 25H1V14h6v11Zm7 0H8V14h6v11Zm13 0H15V14h12v11Zm14 0H28V10h13V9H28V1h13v24Zm-16-7h-8v5h8v-5Zm-1 4h-6v-3h6v3Z" fill="#000"/></svg>

<svg width="42" height="26" viewBox="0 0 42 26" fill="none" xmlns="http://www.w3.org/2000/svg">
<path fill-rule="evenodd" clip-rule="evenodd" d="M11 17H10V20H11V17ZM5 17H4V20H5V17ZM19.8 7.4L17 3.7V0H13V3.7L10.2 7.4L9 9H21L19.8 7.4ZM11 8L14 4V1H16V4L19 8H11ZM30 15H31V12H30V15ZM22 15H20V17H22V15ZM31 4H30V6H31V4ZM27 0V13H0V26H42V0H27ZM7 25H1V14H7V25ZM14 25H8V14H14V25ZM27 25H15V14H27V25ZM41 25H28V10H41V9H28V1H41V25ZM25 18H17V23H25V18ZM24 22H18V19H24V22Z" fill="black"/>
</svg>
